X:254
T:To Old To Cut The Mustard Reel
R:reel
C:Bruce Osborne - Jan. 2003
Z:abc by bosborne@kos.net
M:2/4
L:1/8
K:Gmaj
(3D/E/F/|GB B/A/G/E/|D/E/D/B,/ D (3D/E/F/|GB d/B/G/B/|A/^c/e/^c/ d/=c/B/A/|\
GB B/A/G/E/|D/E/D/B,/ D (3D/E/F/|GB d/B/G/B/|c/A/F/A/ G:|
|:B/c/|d/B/G/B/ c/A/F/A/|(3G/F/G/ B/A/ GB/c/|d/g/f/g/ b/g/f/g/|e/d/c/B/ AB/c/|\
d/B/G/B/ c/A/F/A/|(3G/F/G/ B/A/ GB/c/|d/g/f/g/ e/c/A/F/|G/B/A/F/ G:|
